X:4
T:reel des Ouvriers
M:4/4
K:G
|:\
g2fg dgBd | gabg agef | g2fg dgBd | cBAG FADf |\
g2fg dgBd | gabg agef | gfga gfed | egfa g2 :|
|:\
G3B d2BG | ABcd (3cdc A2 | Bdgd BgBd | cBAG FAD2 |\
G3B d2BG | ABcd (3cdc A2 | Bdgd BgBd | cAFA G2 :|
